X: 2010
T: Bang Your Frog On The Sofa
B: steve tunes
M:4/4
L:1/8
R: reel
Q: 1/4=100
K:Dmin
V:1 
|:"Dm"DFAd c2 GB|AFDF GECE|DCDE FGAc|dcAF "C"G2 FG|
|"Dm"Adde fedc|dcAF "C"GECE|"Dm"DF"C"EG "Dm"FA"C"GB|1 "C"AGEF "Dm"D2 A,C:|2 "C"Ad^ce "Dm"defg||
|"Dm"a2 af dfaf|dfaf gfed|"C"ce (3eee gecd|edef "C"gefg|
|"Dm"a2 af dfaf|defg "C"afde|"Dm"fe"C"dc "Dm"AB"C"GB|"C"Ad^ce "Dm"defg|
|"Dm"a2 af dfaf|dfaf gfed|"C"ce (3eee gecd|edef gefg|
|"Dm"af (3fff ge (3eee|fedf edce|"C"fedc AGFA|GECE "Dm"D2 C2||
% abcbook-tune_id 629f47bd12d63fefc90829c1


% abcbook-boost 9
% abcbook-tablature 
% abcbook-transpose 
% abcbook-lastupdated 1655985150706
% abcbook-soundfonts 
% abcbook-repeats 3
% Rhythm Reel
% Titles One title
% Transcriptions Only 1 transcription
% Movement Has lots of stepwise movement
% Movement Has some stepwise movement
% Mode minor
% Key D
% Time_signature 4/4
% Has_accompaniment_chords No chords

